X: 23036
T: Last Pint, The
R: hornpipe
M: 4/4
K: Gmajor
|:~G3E DEGA|BGAB AGED|~G3E DEGA|BGAB A3z|
~G3E DEGA|BGAB AGED|GABG BcAG|FDEF AGGF:|
|:GBdG BdGB|cBAG BGGF|GBdG BdGB|cBAG FDEF|
GBdG BdGB|cBAG BGGF|~G3E DEGA|BGAB A4:|
"Variation"
BcBG cdcG|BcBG ded2|BcBG cdcG|BcBG AGE2|
BcBG cdcG|BcBG ded2|BcBG cdcG|BcBG AGE2|

